X:19057
T:South Downs
R:Jig
C:Jim Harding, 1984
O:Sussex
Z:Paul Hardy's Session Tunebook 2015 (see www.paulhardy.net). Creative Commons cc by-nc-sa licenced.
M:6/8
L:1/8
Q:3/8=70
K:G
d|"D"d>cA "G"G3|"C"E>FG "D"AFD|DEF "Em"GAB|"Am"cde "D"d2d|
"D"d>cA "G"G3|"C"E>FG "D"AFD|"D"DEF "Em"GAB|"D7"cAF "G"G2:|
|:B|"G"B>cd "Am"e2c|"G"d2B "Am"c2A|"G"Bcd "Am"e2c|"G"d2B "Am"c2B|"D"A3-A3|
"D"D>GF "Am"E3|cBA "D"FED|D>EF "Em"GAB|"D7"cAF "G"G2:|

